!!!COM: Palestrina, Giovanni Perluigi da
!!!OPR: Missa Panis quem ego dabo
!!!OMD: Credo
!!!OTL: First Section
**kern	**kern	**kern	**kern
*Ibass	*Itenor	*Icalto	*Icant
!Bassus	!Tenor	!Altus	!Cantus
*clefF4	*clefGv2	*clefG2	*clefG2
*k[]	*k[]	*k[]	*k[]
*D:dor	*D:dor	*D:dor	*D:dor
*M4/2	*M4/2	*M4/2	*M4/2
=1	=1	=1	=1
0r	0r	1g	1r
.	.	2b-	1dd
.	.	2g	.
=2	=2	=2	=2
0r	0r	2b-	2dd
.	.	2b-	2dd
.	.	2.a	2cc
.	.	.	2a
.	.	4g	.
=3	=3	=3	=3
0r	1d	4f	1dd
.	.	4e	.
.	.	4f	.
.	.	4g	.
.	2f	2a	2cc
.	2d	[2b-	[2dd
=4	=4	=4	=4
0r	2f	4b-]	4dd]
.	.	4a	4cc
.	2f	1a	4b
.	.	.	4a
.	2.e	.	1b
.	.	2g#	.
.	8d	.	.
.	8e	.	.
=5	=5	=5	=5
1r	2f	0a	2a
.	2.d	.	2dd
1d	.	.	2ff
.	4e	.	.
.	4f	.	2dd
.	4g	.	.
=6	=6	=6	=6
2d	1a	2r	1ff
2d	.	2a	.
2c	1A	2a	2ee
2A	.	2a	2cc
=7	=7	=7	=7
1d	0r	2f	4dd
.	.	.	4ee
.	.	2d	4ff
.	.	.	4dd
2c	.	1a	2ee
[2d	.	.	[2ff
=8	=8	=8	=8
4d]	0r	2f	4ff]
4c	.	.	4ee
4B-	.	2.g	4dd
4A	.	.	4cc
1B-	.	.	4b-
.	.	4f	4cc
.	.	4e	[2dd
.	.	4d	.
=9	=9	=9	=9
1A	1r	1e	2dd]
.	.	.	2cc#
[1D	2r	1d	2dd
.	[2d	.	[2ff
=10	=10	=10	=10
1D]	2d]	1.a	2ff]
.	2d	.	2ff
1r	2c	.	2ee
.	2A	2a	2cc
=11	=11	=11	=11
1r	1c	2g	1ee
.	.	2e	.
[1G	4B	1g	2.dd
.	4A	.	.
.	4G	.	.
.	4A	.	4cc
=12	=12	=12	=12
2G]	4B	4G	1b
.	4c	4A	.
2G	4d	4B	.
.	4e	4c	.
2F	4f	4d	1a
.	4g	4c	.
2D	4a	2f	.
.	4f	.	.
=13	=13	=13	=13
2.G	2g	2e	1b
.	2g	2.d	.
8F	.	.	.
8E	.	.	.
2F#	[1d	.	1r
.	.	4c	.
2G	.	4B	.
.	.	4A	.
=14	=14	=14	=14
2F	1d]	4B	1.g
.	.	4c	.
4E	.	1d	.
4D	.	.	.
2E	1r	.	.
2E	.	2c#	2g
=15	=15	=15	=15
2D	1r	4d	2f
.	.	4e	.
1d	.	4f	2d
.	.	4g	.
.	2r	1a	4f
.	.	.	4g
2d	[2a	.	4a
.	.	.	4b
=16	=16	=16	=16
2c	2a]	2r	4cc
.	.	.	4dd
2A	2a	1cc	4ee
.	.	.	4ff
2.c	2g	.	4ee
.	.	.	4cc
.	2e	2cc	[2ee
4B-	.	.	.
=17	=17	=17	=17
2G	4g	2b-	4ee]
.	4f	.	4dd
2B-	4e	2g	1dd
.	4d	.	.
1A	2e	2.a	.
.	2e	.	2cc#
.	.	4g	.
=18	=18	=18	=18
0D	0d	1f#	2dd
.	.	.	1a
.	.	2r	.
.	.	[2d	2a
=19	=19	=19	=19
0r	0r	2d]	4b
.	.	.	4cc
.	.	2d	4dd
.	.	.	4b
.	.	4e	2cc
.	.	4f	.
.	.	4g	2b
.	.	4e	.
=20	=20	=20	=20
0r	1r	2f	2a
.	.	2g	2g
.	[1d	2g	1a
.	.	2f#	.
=21	=21	=21	=21
1.G	2d]	0g	0b
.	2d	.	.
.	4e	.	.
.	4f	.	.
2G	4g	.	.
.	4e	.	.
=22	=22	=22	=22
4A	2f	0r	0r
4B	.	.	.
4c	2e	.	.
4A	.	.	.
2B	2d	.	.
[2c	2c	.	.
=23	=23	=23	=23
2c]	1d	1r	2r
2B	.	.	2g
2c	4e	2r	2g
.	4f	.	.
2c	[2g	2c	2g
=24	=24	=24	=24
1A	4g]	2c	2a
.	8f	.	.
.	8e	.	.
.	2f#	2c	2a
1G	[1g	2d	4b
.	.	.	4cc
.	.	2d	4dd
.	.	.	4b
=25	=25	=25	=25
1C	1g]	4e	1.cc
.	.	4f	.
.	.	4g	.
.	.	4e	.
1r	2a	2f	.
.	2e	2g	2b
=26	=26	=26	=26
1r	2f	4d	2a
.	.	8e	.
.	.	8f	.
.	2e	1g	2g
2r	2.d	.	1a
2D	.	2f#	.
.	4c	.	.
=27	=27	=27	=27
2E	2B	1g	2r
4C	2c	.	1cc
4D	.	.	.
4E	1G	2r	.
4F	.	.	.
[2G	.	2d	2b
=28	=28	=28	=28
2G]	2r	2e	2a
2F	2A	4c	2a
.	.	4d	.
1E	2B	4e	1g
.	.	4f	.
.	4G	[2g	.
.	4A	.	.
=29	=29	=29	=29
1D	4B	2g]	2r
.	4c	.	.
.	1d	2f	2a
1r	.	1e	2b
.	2c	.	4g
.	.	.	4a
=30	=30	=30	=30
0r	1B	2.d	4b
.	.	.	4cc
.	.	.	1dd
.	.	4e	.
.	1A	4f	.
.	.	4g	.
.	.	[2a	2cc
=31	=31	=31	=31
1r	2r	2a]	1b
.	2e	2g#	.
2r	2f	1a	2a
2A	2e	.	2cc
=32	=32	=32	=32
2B	2d	0r	2dd
4G	1g	.	1b
4A	.	.	.
4B	.	.	.
4c	.	.	.
[2d	4f	.	2a
.	4e	.	.
=33	=33	=33	=33
2d]	2f	1r	2b
2c	2.e	.	2.a
1B	.	2r	.
.	4d	.	4g
.	[2d	2d	[2g
=34	=34	=34	=34
2.A	4d]	2e	2g]
.	4c	.	.
.	2.c	4c	2f#
4A	.	4d	.
1G	.	4e	1g
.	4B	4f#	.
.	2B	[2g	.
=35	=35	=35	=35
0r	2c	2g]	1a
.	2d	2f	.
.	2G	1e	2b
.	[2g	.	4g
.	.	.	4a
=36	=36	=36	=36
0r	4g]	1d	4b
.	4f	.	4cc
.	4f	.	1dd
.	8e	.	.
.	8d	.	.
.	[1e	[1g	.
.	.	.	2cc
=37	=37	=37	=37
1r	2e]	2g]	2b
.	2d	2f	1dd
2r	2A	1e	.
2A	2e	.	4cc#
.	.	.	4b
=38	=38	=38	=38
2A	2e	2r	2cc#
2A	2e	2a	2cc#
1d	1f	2a	1dd
.	.	2b-	.
=39	=39	=39	=39
2c#	2e	1a	0r
2d	2f	.	.
2A	2f	2a	.
2c	[2e	2g	.
=40	=40	=40	=40
2B-	2e]	2g	1r
2B-	1d	2d	.
1A	.	2f	2r
.	2c#	2e	[2a
=41	=41	=41	=41
1D	0d	2f	2a]
.	.	1f	2a
1B-	.	.	1dd
.	.	2g	.
=42	=42	=42	=42
2A	2r	2a	2cc#
2D	1A	1f	2dd
2F	.	.	2a
2F	2A	[2a	2cc
=43	=43	=43	=43
1G	1d	2a]	1b-
.	.	1g	.
1r	2c#	.	2.a
.	2d	2f	.
.	.	.	4b
=44	=44	=44	=44
0r	2A	2.e	4cc
.	.	.	4dd
.	2c	.	2.ee
.	.	4f	.
.	1B-	4g	.
.	.	4f	4dd
.	.	4e	[2dd
.	.	4d	.
=45	=45	=45	=45
1r	1A	1e	2dd]
.	.	.	2cc#
2r	1d	1d	2dd
[2B-	.	.	[2dd
=46	=46	=46	=46
2B-]	0r	2r	2dd]
2A	.	1a	2cc
2F	.	.	2a
2G	.	2g	2b
=47	=47	=47	=47
1A	1r	2e	1cc
.	.	2f#	.
1G	2r	1g	2.b
.	[2g	.	.
.	.	.	4cc
=48	=48	=48	=48
1.d	2g]	1a	2dd
.	2f	.	1ff
.	2d	2r	.
2c	2e	[2cc	2ee
=49	=49	=49	=49
2A	1f	2cc]	2cc
2B-	.	2b-	2dd
1c	2.e	2g	1ee
.	.	2a	.
.	4f	.	.
=50	=50	=50	=50
1G	4g	1b-	1dd
.	4a	.	.
.	1g	.	.
2.A	.	1a	[1cc
.	[2f	.	.
4B-	.	.	.
=51	=51	=51	=51
1c	4f]	1g	1cc]
.	8e	.	.
.	8d	.	.
.	2e	.	.
1F	2f	[1a	[1cc
.	[2f	.	.
=52	=52	=52	=52
1.A	2f]	0a]	1cc]
.	2e	.	.
.	2c	.	1r
2F	2d	.	.
=53	=53	=53	=53
2G	1e	0r	2r
2A	.	.	1a
2D	1f	.	.
[2d	.	.	2f
=54	=54	=54	=54
2d]	2.e	0r	2g
2c	.	.	2a
.	4f	.	.
1B-	4g	.	2d
.	4f	.	.
.	4e	.	[2dd
.	4d	.	.
=55	=55	=55	=55
1A	2e	2r	2dd]
.	2.f	1a	4cc
.	.	.	4b
1r	.	.	2cc
.	4e	.	.
.	[2d	2f	2dd
=56	=56	=56	=56
0r	4d]	2g	2.ee
.	4c	.	.
.	4c	2a	.
.	8B	.	4cc
.	8A	.	.
.	2B	2d	2dd
.	2c	[2g	[2ee
=57	=57	=57	=57
0r	1d	2g]	4ee]
.	.	.	4dd
.	.	2f	1dd
.	2r	1e	.
.	[2g	.	2cc#
=58	=58	=58	=58
2r	2g]	1d	1dd
2d	2f	.	.
2c	2e	1g	1r
2B-	[2d	.	.
=59	=59	=59	=59
2.A	2d]	2f	0r
.	1c	2e	.
4G	.	.	.
2F	.	2.d	.
[2G	4B-	.	.
.	4A	8c	.
.	.	8d	.
=60	=60	=60	=60
2G]	2B-	2e	2r
2F	2A	1d	2a
1E	1G	.	2ee
.	.	2c#	2ee
=61	=61	=61	=61
1D	1A	2d	2.ff
.	.	2f	.
.	.	.	4ee
1r	1r	2g	2dd
.	.	2a	2cc
=62	=62	=62	=62
0r	0r	4d	1ff
.	.	4e	.
.	.	4f	.
.	.	4g	.
.	.	4a	2.ee
.	.	4b	.
.	.	2cc	.
.	.	.	8dd
.	.	.	8cc
=63	=63	=63	=63
0r	2r	2b	2dd
.	2A	1a	2cc
.	2e	.	1b
.	2e	2g#	.
=64	=64	=64	=64
2r	2.f	1a	1a
2F	.	.	.
.	4e	.	.
2G	2d	1r	1r
2A	2c	.	.
=65	=65	=65	=65
4D	1f	0r	0r
4E	.	.	.
4F	.	.	.
4G	.	.	.
4A	2.e	.	.
4B	.	.	.
[2c	.	.	.
.	4d	.	.
=66	=66	=66	=66
2c]	4e	2r	0r
.	4f	.	.
2B	1g	2d	.
2c	.	1a	.
2d	2f#	.	.
=67	=67	=67	=67
1G	1g	2.b-	2r
.	.	.	2dd
.	.	4a	.
1r	2r	2g	2ee
.	[2d	2f	[2ff
=68	=68	=68	=68
0r	2d]	1b-	2ff]
.	2e	.	4ee
.	.	.	4dd
.	2f	2.a	2cc
.	2d	.	[2ff
.	.	8g	.
.	.	8f	.
=69	=69	=69	=69
1r	1c	2a	2ff]
.	.	2.g	2.ee
2r	1d	.	.
.	.	4f	4dd
2D	.	4f	[2dd
.	.	8e	.
.	.	8d	.
=70	=70	=70	=70
1A	1r	1e	2dd]
.	.	.	2cc#
2.B-	2r	2d	2.dd
.	2f	[2d	.
4A	.	.	4cc
=71	=71	=71	=71
2G	2g	2d]	2b-
2F	2a	1f	1a
1B-	1d	.	.
.	.	4e	2g
.	.	4d	.
=72	=72	=72	=72
[0A	2f	2.c#	[0a
.	4e	.	.
.	4d	4d	.
.	2c#	2e	.
.	2d	[2d	.
=73	=73	=73	=73
1A]	1e	2d]	1a]
.	.	2c#	.
1r	1f	1d	1r
=74	=74	=74	=74
1D	1d	1f	1a
1D	1d	1f	1a
=75	=75	=75	=75
1A	1c#	1e	1a
1G	1d	1g	1b
=76	=76	=76	=76
1E	1e	1g	1cc#
1D	1f#	1a	1dd
=77	=77	=77	=77
1G	1g	1b	1dd
[1c	[1g	[1cc	[1ee
=78	=78	=78	=78
2c]	2g]	2cc]	2ee]
2c	2g	2cc	2ee
1c	1g	1cc	1ee
=79	=79	=79	=79
1G	1g	1b-	1dd
1A	1e	1a	1cc#
=80	=80	=80	=80
1.B-	2r	1.f	1.dd
.	1d	.	.
2B-	2d	2g	2dd
=81	=81	=81	=81
1A	1e	1a	1cc
1F	1f	1a	1cc
=82	=82	=82	=82
1c	1e	1g	1cc
1d	1f	1f	1b
=83	=83	=83	=83
0c	[0g	1e	1cc
.	.	1cc	1ee
=84	=84	=84	=84
1r	1g]	1b	1dd
1C	1e	[1g	1cc
=85	=85	=85	=85
1G	1d	1g]	1b
1A	1c	1e	[1a
=86	=86	=86	=86
1E	1B	0e	2a]
.	.	.	4g#
.	.	.	4f#
1E	1B	.	1g#
=87	=87	=87	=87
0A	0c#	0e	0a
*-	*-	*-	*-
!!!CDT: 1525/^1526/-1594/2/2
!!!OCY: Italia
!!!AGN: Mass (Parody)
!!!AST: renaissance, vocal
!!!ASW: Motet 1532 (Lupus Hellinck)
!!!PWK: Masses, Book 5
!!!RNB: Cadence finals: A
!!!YOR: Le Opere Complete, v. 15, p. 45
!!!YOO: Rome, Italy: Fratelli Scalera
!!!END: 1992//
!!!EED: John Miller
!!!YEC: Copyright 2000, John Miller
!!!YEN: United States of America
!!!YEM: Rights to all derivative electronic formats reserved.
!!!YEM: Refer to licensing agreement for further details.
!!!YEM: This file must be accompanied by the licensing agreement.
!!!YEM: A copy of the licensing agreement may be found at http://www.music-cog.ohio-state.edu/HumdrumDatabases/Palestrina/license.txt
!!!EMD: converted to Humdrum by Bret Aarden
